X: 34831
T: Roarin' Donald
R: reel
M: 4/4
K: Edorian
ED|:B,EED EEDE|GABG AAGA|B2 BA B2 AB|DEE/E/E FEEE|
B,EED E2 DE|GABG A2 GA|BEE/E/E B2 AB|GEED E4:|
|:Beed e2 de|f/e/dec d3 c|ABB/B/B eBB/B/B|c/B/ABG ABGD|
B,EED E2 DE|GABG A2 GA|BEE/E/E B2 AB|GEED E3 D:|

